X: 566
T: Flop-Eared Mule
B: jims roots
B: ralph
M:2/4
L:1/8
Q: 1/4=100
K:G
V:1 
|: ga | "G"[b4d] [g4B] | dedc BAGE | "D"DEFG AGFA | "G"GABc d2ga |
"G"baba gage | dedc BAGE | "D"DEFG AGFA | "G"G2[GB,][GB,] [G2B,] :|
|: fg |"D"a2f2 a2f2 | abag fedB | "A"ABcd edce | "D"defg a2af |
a2f2 a2f2 | abag fedB | "A"ABcd edce | "D"J[d6f] z2 :|
% abcbook-tune_id 6298c25d4dd3a06cc6e740a3


% abcbook-boost 0
% abcbook-tablature 
% abcbook-transpose 
% abcbook-lastupdated 1665486413843
% abcbook-soundfonts 
% abcbook-repeats 1


